src/assets/img/Home/icons/moneyicon.svg

<svg width="35" height="34" viewBox="0 0 35 34" fill="none" xmlns="http://www.w3.org/2000/svg">
<g id="Icon">
<g id="Union">
<path d="M17.3335 10.625C15.5731 10.625 14.146 12.0521 14.146 13.8125C14.146 15.5729 15.5731 17 17.3335 17C19.0939 17 20.521 15.5729 20.521 13.8125C20.521 12.0521 19.0939 10.625 17.3335 10.625Z" fill="#CAFF33"/>
<path fill-rule="evenodd" clip-rule="evenodd" d="M2.4585 6.90625C2.4585 5.43924 3.64774 4.25 5.11475 4.25H29.5522C31.0193 4.25 32.2085 5.43924 32.2085 6.90625V20.7188C32.2085 22.1858 31.0193 23.375 29.5522 23.375H5.11475C3.64774 23.375 2.4585 22.1858 2.4585 20.7188V6.90625ZM12.021 13.8125C12.021 10.8785 14.3995 8.5 17.3335 8.5C20.2675 8.5 22.646 10.8785 22.646 13.8125C22.646 16.7465 20.2675 19.125 17.3335 19.125C14.3995 19.125 12.021 16.7465 12.021 13.8125ZM26.896 12.75C26.3092 12.75 25.8335 13.2257 25.8335 13.8125V13.8231C25.8335 14.4099 26.3092 14.8856 26.896 14.8856H26.9066C27.4934 14.8856 27.9691 14.4099 27.9691 13.8231V13.8125C27.9691 13.2257 27.4934 12.75 26.9066 12.75H26.896ZM6.7085 13.8125C6.7085 13.2257 7.18419 12.75 7.771 12.75H7.78162C8.36842 12.75 8.84412 13.2257 8.84412 13.8125V13.8231C8.84412 14.4099 8.36842 14.8856 7.78162 14.8856H7.771C7.18419 14.8856 6.7085 14.4099 6.7085 13.8231V13.8125Z" fill="#CAFF33"/>
<path d="M3.521 25.5C2.93419 25.5 2.4585 25.9757 2.4585 26.5625C2.4585 27.1493 2.93419 27.625 3.521 27.625C11.1711 27.625 18.5805 28.6481 25.6207 30.5644C27.3073 31.0235 29.021 29.7738 29.021 27.9864V26.5625C29.021 25.9757 28.5453 25.5 27.9585 25.5H3.521Z" fill="#CAFF33"/>
</g>
</g>
</svg>

<svg xmlns="http://www.w3.org/2000/svg" width="35" height="34" fill="none"><g fill="#CAFF33"><path d="M17.334 10.625a3.188 3.188 0 1 0 0 6.375 3.188 3.188 0 0 0 0-6.375Z"/><path fill-rule="evenodd" d="M2.458 6.906A2.656 2.656 0 0 1 5.115 4.25h24.437a2.656 2.656 0 0 1 2.657 2.656V20.72a2.656 2.656 0 0 1-2.657 2.656H5.115a2.656 2.656 0 0 1-2.657-2.656V6.906Zm9.563 6.907a5.313 5.313 0 1 1 10.625 0 5.313 5.313 0 0 1-10.625 0Zm14.875-1.063c-.587 0-1.063.476-1.063 1.063v.01c0 .587.476 1.063 1.063 1.063h.01c.587 0 1.063-.476 1.063-1.063v-.01c0-.587-.476-1.063-1.062-1.063h-.011ZM6.708 13.813c0-.587.476-1.063 1.063-1.063h.01c.587 0 1.063.476 1.063 1.063v.01c0 .587-.476 1.063-1.062 1.063H7.77a1.062 1.062 0 0 1-1.063-1.063v-.01Z" clip-rule="evenodd"/><path d="M3.521 25.5a1.062 1.062 0 1 0 0 2.125c7.65 0 15.06 1.023 22.1 2.94 1.686.458 3.4-.791 3.4-2.579v-1.424c0-.586-.476-1.062-1.063-1.062H3.521Z"/></g></svg>
